Newaita-dark/apps/128/visual-studio-code.svg

<?xml version="1.0" encoding="UTF-8"?>
<svg xmlns="http://www.w3.org/2000/svg" xmlns:xlink="http://www.w3.org/1999/xlink" width="128pt" height="128pt" viewBox="0 0 128 128" version="1.1">
<defs>
<linearGradient id="linear0" gradientUnits="userSpaceOnUse" x1="254" y1="233.5" x2="254" y2="254.666672" gradientTransform="matrix(0.250024,0,0,0.250024,-0.0000152602,53.75514)">
<stop offset="0" style="stop-color:rgb(0%,0%,0%);stop-opacity:0.27451;"/>
<stop offset="1" style="stop-color:rgb(0%,0%,0%);stop-opacity:0;"/>
</linearGradient>
<radialGradient id="radial0" gradientUnits="userSpaceOnUse" cx="450.908936" cy="189.579361" fx="450.908936" fy="189.579361" r="21.166656" gradientTransform="matrix(0.000000696681,-0.31253,-0.562554,-0.000000406154,212.49172,254.38133)">
<stop offset="0" style="stop-color:rgb(0%,0%,0%);stop-opacity:0.313725;"/>
<stop offset="0.222222" style="stop-color:rgb(0%,0%,0%);stop-opacity:0.27451;"/>
<stop offset="1" style="stop-color:rgb(0%,0%,0%);stop-opacity:0;"/>
</radialGradient>
<radialGradient id="radial1" gradientUnits="userSpaceOnUse" cx="450.908936" cy="189.579361" fx="450.908936" fy="189.579361" r="21.166656" gradientTransform="matrix(-0.000000696681,0.31253,0.562554,0.000000406154,-84.818081,-30.109915)">
<stop offset="0" style="stop-color:rgb(0%,0%,0%);stop-opacity:0.313725;"/>
<stop offset="0.222222" style="stop-color:rgb(0%,0%,0%);stop-opacity:0.27451;"/>
<stop offset="1" style="stop-color:rgb(0%,0%,0%);stop-opacity:0;"/>
</radialGradient>
<radialGradient id="radial2" gradientUnits="userSpaceOnUse" cx="450.908936" cy="189.579361" fx="450.908936" fy="189.579361" r="21.166656" gradientTransform="matrix(-0.000000696681,-0.31253,0.562554,-0.000000406154,-84.818081,254.38133)">
<stop offset="0" style="stop-color:rgb(0%,0%,0%);stop-opacity:0.313725;"/>
<stop offset="0.222222" style="stop-color:rgb(0%,0%,0%);stop-opacity:0.27451;"/>
<stop offset="1" style="stop-color:rgb(0%,0%,0%);stop-opacity:0;"/>
</radialGradient>
<radialGradient id="radial3" gradientUnits="userSpaceOnUse" cx="450.908936" cy="189.579361" fx="450.908936" fy="189.579361" r="21.166656" gradientTransform="matrix(0.000000696681,0.31253,-0.562554,0.000000406154,212.491714,-30.109917)">
<stop offset="0" style="stop-color:rgb(0%,0%,0%);stop-opacity:0.313725;"/>
<stop offset="0.222222" style="stop-color:rgb(0%,0%,0%);stop-opacity:0.27451;"/>
<stop offset="1" style="stop-color:rgb(0%,0%,0%);stop-opacity:0;"/>
</radialGradient>
<linearGradient id="linear1" gradientUnits="userSpaceOnUse" x1="275.166656" y1="-803.666687" x2="285.75" y2="233.5" gradientTransform="matrix(0.250024,0,0,0.250024,0,53.755133)">
<stop offset="0" style="stop-color:rgb(25.882353%,25.882353%,25.882353%);stop-opacity:1;"/>
<stop offset="1" style="stop-color:rgb(38.039216%,38.039216%,38.039216%);stop-opacity:1;"/>
</linearGradient>
<linearGradient id="linear2" gradientUnits="userSpaceOnUse" x1="254" y1="233.5" x2="254" y2="-697.833313" >
<stop offset="0" style="stop-color:rgb(25.882353%,25.882353%,25.882353%);stop-opacity:1;"/>
<stop offset="1" style="stop-color:rgb(38.039216%,38.039216%,38.039216%);stop-opacity:1;"/>
</linearGradient>
<linearGradient id="linear3" gradientUnits="userSpaceOnUse" x1="960" y1="1295.118164" x2="960" y2="535.118103" >
<stop offset="0" style="stop-color:rgb(39.215686%,70.980392%,96.470588%);stop-opacity:1;"/>
<stop offset="1" style="stop-color:rgb(56.470588%,79.215686%,97.647059%);stop-opacity:1;"/>
</linearGradient>
<linearGradient id="linear4" gradientUnits="userSpaceOnUse" x1="254" y1="127.666656" x2="254" y2="-73.416664" >
<stop offset="0" style="stop-color:rgb(25.882353%,64.705882%,96.078431%);stop-opacity:1;"/>
<stop offset="1" style="stop-color:rgb(39.215686%,70.980392%,96.470588%);stop-opacity:1;"/>
</linearGradient>
</defs>
<g id="surface1">
<path style=" stroke:none;fill-rule:nonzero;fill:url(#linear0);" d="M 20.507812 112.136719 L 107.167969 112.136719 L 107.167969 117.429688 L 20.507812 117.429688 Z M 20.507812 112.136719 "/>
<path style=" stroke:none;fill-rule:nonzero;fill:url(#radial0);" d="M 107.167969 112.136719 L 117.75 112.136719 L 117.75 106.84375 L 107.167969 106.84375 Z M 107.167969 112.136719 "/>
<path style=" stroke:none;fill-rule:nonzero;fill:url(#radial1);" d="M 20.507812 112.136719 L 9.921875 112.136719 L 9.921875 117.429688 L 20.507812 117.429688 Z M 20.507812 112.136719 "/>
<path style=" stroke:none;fill-rule:nonzero;fill:url(#radial2);" d="M 20.507812 112.136719 L 9.921875 112.136719 L 9.921875 106.84375 L 20.507812 106.84375 Z M 20.507812 112.136719 "/>
<path style=" stroke:none;fill-rule:nonzero;fill:url(#radial3);" d="M 107.167969 112.136719 L 117.75 112.136719 L 117.75 117.429688 L 107.167969 117.429688 Z M 107.167969 112.136719 "/>
<path style=" stroke:none;fill-rule:nonzero;fill:url(#linear1);" d="M 14.554688 11.585938 L 112.457031 11.585938 C 114.652344 11.585938 116.429688 13.363281 116.429688 15.554688 L 116.429688 108.167969 C 116.429688 110.359375 114.652344 112.136719 112.457031 112.136719 L 14.554688 112.136719 C 12.363281 112.136719 10.585938 110.359375 10.585938 108.167969 L 10.585938 15.554688 C 10.585938 13.363281 12.363281 11.585938 14.554688 11.585938 Z M 14.554688 11.585938 "/>
<path style=" stroke:none;fill-rule:nonzero;fill:rgb(100%,100%,100%);fill-opacity:0.392157;" d="M 14.554688 11.585938 C 12.355469 11.585938 10.585938 13.355469 10.585938 15.554688 L 10.585938 16.214844 C 10.585938 14.015625 12.355469 12.246094 14.554688 12.246094 L 112.457031 12.246094 C 114.65625 12.246094 116.429688 14.015625 116.429688 16.214844 L 116.429688 15.554688 C 116.429688 13.355469 114.65625 11.585938 112.457031 11.585938 Z M 14.554688 11.585938 "/>
<path style=" stroke:none;fill-rule:nonzero;fill:rgb(1.176471%,1.176471%,1.176471%);fill-opacity:0.235294;" d="M 14.554688 112.132812 C 12.355469 112.132812 10.585938 110.363281 10.585938 108.164062 L 10.585938 107.503906 C 10.585938 109.703125 12.355469 111.472656 14.554688 111.472656 L 112.457031 111.472656 C 114.65625 111.472656 116.429688 109.703125 116.429688 107.503906 L 116.429688 108.164062 C 116.429688 110.363281 114.65625 112.132812 112.457031 112.132812 Z M 14.554688 112.132812 "/>
<path style=" stroke:none;fill-rule:nonzero;fill:rgb(12.941177%,12.941177%,12.941177%);fill-opacity:1;" d="M 14.554688 11.210938 C 12.152344 11.210938 10.210938 13.152344 10.210938 15.554688 L 10.210938 108.167969 C 10.210938 110.566406 12.152344 112.511719 14.554688 112.511719 L 112.457031 112.511719 C 114.859375 112.511719 116.800781 110.566406 116.800781 108.167969 L 116.800781 15.554688 C 116.800781 13.152344 114.859375 11.210938 112.457031 11.210938 Z M 14.554688 11.960938 L 112.457031 11.960938 C 114.457031 11.960938 116.050781 13.554688 116.050781 15.554688 L 116.050781 108.167969 C 116.050781 110.164062 114.457031 111.761719 112.457031 111.761719 L 14.554688 111.761719 C 12.554688 111.761719 10.960938 110.164062 10.960938 108.167969 L 10.960938 15.554688 C 10.960938 13.554688 12.554688 11.960938 14.554688 11.960938 Z M 14.554688 11.960938 "/>
<path style="fill-rule:nonzero;fill:url(#linear2);stroke-width:3;stroke-linecap:round;stroke-linejoin:round;stroke:rgb(12.941177%,12.941177%,12.941177%);stroke-opacity:1;stroke-miterlimit:4;" d="M 105.833643 -115.743853 L 402.16472 -115.743853 C 408.007912 -115.743853 412.757459 -111.009931 412.757459 -105.166739 L 412.757459 169.994485 C 412.757459 175.837677 408.007912 180.587223 402.16472 180.587223 L 105.833643 180.587223 C 99.990451 180.587223 95.256528 175.837677 95.256528 169.994485 L 95.256528 -105.166739 C 95.256528 -111.009931 99.990451 -115.743853 105.833643 -115.743853 Z M 105.833643 -115.743853 " transform="matrix(0.250024,0,0,0.250024,0,53.755133)"/>
<path style="fill-rule:nonzero;fill:url(#linear3);stroke-width:11.338583;stroke-linecap:round;stroke-linejoin:round;stroke:rgb(12.941177%,12.941177%,12.941177%);stroke-opacity:1;stroke-miterlimit:4;" d="M 680.131937 535.047359 C 670.152574 534.92926 659.996063 538.590328 651.729136 546.857255 L 571.717087 626.810254 C 564.217803 634.309539 560.02529 644.525099 560.02529 655.094956 L 560.02529 1175.143747 C 560.02529 1185.713604 564.217803 1195.929164 571.717087 1203.428449 L 651.729136 1283.381448 C 667.318199 1299.02956 692.650427 1299.02956 708.29854 1283.381448 L 1200.003579 791.676409 L 1200.003579 1038.385146 L 1355.362767 1193.744334 C 1358.37429 1188.075583 1359.968626 1181.698239 1359.968626 1175.143747 L 1359.968626 655.094956 C 1359.968626 644.525099 1355.776113 634.309539 1348.276829 626.810254 L 1268.26478 546.857255 C 1260.942644 539.47607 1250.963282 535.283557 1240.570573 535.106408 C 1229.764518 534.988309 1219.371809 539.180823 1211.695376 546.857255 L 719.990337 1038.562294 C 719.990337 948.334685 719.990337 998.172448 719.990337 575.141957 C 719.990337 551.167868 700.563058 535.283557 680.131937 535.047359 Z M 1208.801952 1280.310875 C 1210.455337 1282.377606 1212.34492 1284.20814 1214.411652 1285.920575 Z M 1208.801952 1280.310875 " transform="matrix(0.0661521,0,0,0.0661521,0,0)"/>
<path style="fill-rule:nonzero;fill:url(#linear4);stroke-width:3;stroke-linecap:round;stroke-linejoin:round;stroke:rgb(12.941177%,12.941177%,12.941177%);stroke-opacity:1;stroke-miterlimit:4;" d="M 179.764083 -73.41977 C 177.014346 -73.3729 174.373973 -72.263631 172.436658 -70.310692 L 151.266805 -49.156462 C 149.282619 -47.172277 148.17335 -44.46941 148.17335 -41.672802 L 148.17335 95.923433 C 148.17335 98.720041 149.282619 101.422908 151.266805 103.407094 L 172.436658 124.561324 C 179.107896 131.232561 190.497433 126.514262 190.497433 117.077663 L 190.497433 -5.535628 L 320.594385 124.561324 C 324.734614 128.701553 331.437099 128.701553 335.561705 124.561324 L 356.731559 103.407094 C 358.715744 101.422908 359.825013 98.720041 359.825013 95.923433 L 359.825013 -41.672802 C 359.825013 -44.46941 358.715744 -47.172277 356.731559 -49.156462 L 335.561705 -70.310692 C 328.906091 -76.98193 317.50093 -72.263631 317.50093 -62.827032 C 317.50093 49.09978 317.50093 35.913539 317.50093 59.786259 L 187.403979 -70.310692 C 185.372923 -72.341748 182.623185 -73.451017 179.764083 -73.41977 Z M 179.764083 -73.41977 " transform="matrix(0.250024,0,0,0.250024,0,53.755133)"/>
</g>
</svg>

<svg xmlns="http://www.w3.org/2000/svg" width="128pt" height="128pt" viewBox="0 0 128 128"><defs><linearGradient id="a" gradientUnits="userSpaceOnUse" x1="254" y1="233.5" x2="254" y2="254.667" gradientTransform="matrix(.25002 0 0 .25002 0 53.755)"><stop offset="0" stop-opacity=".275"/><stop offset="1" stop-opacity="0"/></linearGradient><radialGradient id="b" gradientUnits="userSpaceOnUse" cx="450.909" cy="189.579" fx="450.909" fy="189.579" r="21.167" gradientTransform="matrix(0 -.31253 -.56255 0 212.492 254.381)"><stop offset="0" stop-opacity=".314"/><stop offset=".222" stop-opacity=".275"/><stop offset="1" stop-opacity="0"/></radialGradient><radialGradient id="c" gradientUnits="userSpaceOnUse" cx="450.909" cy="189.579" fx="450.909" fy="189.579" r="21.167" gradientTransform="matrix(0 .31253 .56255 0 -84.818 -30.11)"><stop offset="0" stop-opacity=".314"/><stop offset=".222" stop-opacity=".275"/><stop offset="1" stop-opacity="0"/></radialGradient><radialGradient id="d" gradientUnits="userSpaceOnUse" cx="450.909" cy="189.579" fx="450.909" fy="189.579" r="21.167" gradientTransform="matrix(0 -.31253 .56255 0 -84.818 254.381)"><stop offset="0" stop-opacity=".314"/><stop offset=".222" stop-opacity=".275"/><stop offset="1" stop-opacity="0"/></radialGradient><radialGradient id="e" gradientUnits="userSpaceOnUse" cx="450.909" cy="189.579" fx="450.909" fy="189.579" r="21.167" gradientTransform="matrix(0 .31253 -.56255 0 212.492 -30.11)"><stop offset="0" stop-opacity=".314"/><stop offset=".222" stop-opacity=".275"/><stop offset="1" stop-opacity="0"/></radialGradient><linearGradient id="f" gradientUnits="userSpaceOnUse" x1="275.167" y1="-803.667" x2="285.75" y2="233.5" gradientTransform="matrix(.25002 0 0 .25002 0 53.755)"><stop offset="0" stop-color="#424242"/><stop offset="1" stop-color="#616161"/></linearGradient><linearGradient id="g" gradientUnits="userSpaceOnUse" x1="254" y1="233.5" x2="254" y2="-697.833"><stop offset="0" stop-color="#424242"/><stop offset="1" stop-color="#616161"/></linearGradient><linearGradient id="h" gradientUnits="userSpaceOnUse" x1="960" y1="1295.118" x2="960" y2="535.118"><stop offset="0" stop-color="#64b5f6"/><stop offset="1" stop-color="#90caf9"/></linearGradient><linearGradient id="i" gradientUnits="userSpaceOnUse" x1="254" y1="127.667" x2="254" y2="-73.417"><stop offset="0" stop-color="#42a5f5"/><stop offset="1" stop-color="#64b5f6"/></linearGradient></defs><path d="M20.508 112.137h86.66v5.293h-86.66zm0 0" fill="url(#a)"/><path d="M107.168 112.137h10.582v-5.293h-10.582zm0 0" fill="url(#b)"/><path d="M20.508 112.137H9.922v5.293h10.586zm0 0" fill="url(#c)"/><path d="M20.508 112.137H9.922v-5.293h10.586zm0 0" fill="url(#d)"/><path d="M107.168 112.137h10.582v5.293h-10.582zm0 0" fill="url(#e)"/><path d="M14.555 11.586h97.902a3.97 3.97 0 0 1 3.973 3.969v92.613a3.97 3.97 0 0 1-3.973 3.969H14.555a3.97 3.97 0 0 1-3.97-3.969V15.555a3.97 3.97 0 0 1 3.97-3.97zm0 0" fill="url(#f)"/><path d="M14.555 11.586a3.96 3.96 0 0 0-3.97 3.969v.66a3.96 3.96 0 0 1 3.97-3.969h97.902c2.2 0 3.973 1.77 3.973 3.969v-.66c0-2.2-1.774-3.97-3.973-3.97zm0 0" fill="#fff" fill-opacity=".392"/><path d="M14.555 112.133a3.96 3.96 0 0 1-3.97-3.969v-.66a3.96 3.96 0 0 0 3.97 3.969h97.902c2.2 0 3.973-1.77 3.973-3.97v.661c0 2.2-1.774 3.969-3.973 3.969zm0 0" fill="#030303" fill-opacity=".235"/><path d="M14.555 11.21a4.34 4.34 0 0 0-4.344 4.345v92.613a4.342 4.342 0 0 0 4.344 4.344h97.902a4.342 4.342 0 0 0 4.344-4.344V15.555a4.34 4.34 0 0 0-4.344-4.344zm0 .75h97.902c2 0 3.594 1.595 3.594 3.595v92.613a3.577 3.577 0 0 1-3.594 3.594H14.555c-2 0-3.594-1.598-3.594-3.594V15.555c0-2 1.594-3.594 3.594-3.594zm0 0" fill="#212121"/><path d="M105.834-115.744h296.33c5.844 0 10.593 4.734 10.593 10.577v275.161c0 5.844-4.75 10.593-10.592 10.593H105.834c-5.844 0-10.577-4.75-10.577-10.593v-275.16c0-5.844 4.733-10.578 10.577-10.578zm0 0" transform="matrix(.25002 0 0 .25002 0 53.755)" fill="url(#g)" stroke-width="3" stroke-linecap="round" stroke-linejoin="round" stroke="#212121"/><path d="M680.132 535.047c-9.98-.118-20.136 3.543-28.403 11.81l-80.012 79.953c-7.5 7.5-11.692 17.715-11.692 28.285v520.049c0 10.57 4.193 20.785 11.692 28.284l80.012 79.953c15.59 15.649 40.921 15.649 56.57 0l491.705-491.705v246.71l155.359 155.358c3.011-5.668 4.606-12.046 4.606-18.6V655.095c0-10.57-4.193-20.785-11.692-28.285l-80.012-79.953c-7.322-7.38-17.302-11.573-27.694-11.75-10.806-.119-21.2 4.074-28.876 11.75L719.99 1038.562v-463.42c0-23.974-19.427-39.858-39.858-40.095zm528.67 745.264c1.653 2.067 3.543 3.897 5.61 5.61zm0 0" transform="scale(.06615)" fill="url(#h)" stroke-width="11.339" stroke-linecap="round" stroke-linejoin="round" stroke="#212121"/><path d="M179.764-73.42a10.581 10.581 0 0 0-7.327 3.11l-21.17 21.154a10.597 10.597 0 0 0-3.094 7.483V95.923c0 2.797 1.11 5.5 3.094 7.484l21.17 21.154c6.67 6.672 18.06 1.953 18.06-7.483V-5.536l130.097 130.097c4.14 4.14 10.843 4.14 14.968 0l21.17-21.154a10.597 10.597 0 0 0 3.093-7.484V-41.673c0-2.796-1.11-5.5-3.093-7.483l-21.17-21.155c-6.656-6.67-18.061-1.953-18.061 7.484V59.786L187.404-70.31a10.621 10.621 0 0 0-7.64-3.109zm0 0" transform="matrix(.25002 0 0 .25002 0 53.755)" fill="url(#i)" stroke-width="3" stroke-linecap="round" stroke-linejoin="round" stroke="#212121"/></svg>
